!!!OTL: Der Tod von Basel (2-57), S. 150f
!!!id: K1138
**kern
*clefG2
*k[b-]
*F:
{8c
=1
8f
8a
8a
8g
=2
8g
8f
8f
8a
=3
8a
8a
8cc
8a
=4
4g}
8r
=5
{8c
=6
8f
8a
8a
8g
=7
8g
8f
8f
8a
=8
8a
8a
8cc
8a
=9
4g}
8r
=10
{8cc
=11
8cc
8cc
8cc
8cc
=12
4cc
4a
=13
4ff
4dd
=14
4cc
8a}
=15
{8cc
=16
8cc
8cc
8b-
8g
=17
8f
8a
8cc
8cc
=18
8cc
8cc
8b-
8g
=19
4f}
8r
=20
{8cc
=21
8cc
8cc
8cc
8cc
=22
4cc
4a
=23
4ff
4dd
=24
4cc
8a}
=25
{8cc
=26
8cc
8cc
8b-
8g
=27
8f
8a
8cc
8cc
=28
8cc
8cc
8b-
8g
=29
4f}
8r
==
*-
!!!minrhy: 8
!!!meters: 2/4 ]  ZZ[6
!!!cut: Der Tod von Basel (2-57), S. 150f
!!!reg: Luxemburg
!!!trd: KINTZELE, Guillaume: An der Ucht, Bd. 2, Luxemburg 1927
!!!rhy1: X  XXXX  XXXX  XXXX  X_0
!!!rhy2: X  XXXX  XXXX  XXXX  X_0
!!!key: K1138  08  F 2/4 ]  ZZ[6
!!!mod: SECHSTONSKALA DUR ?]  AMBITUS[11
!!!kad: 223131
!!!akz: 1232_1232_55+15_5151_55+15_5151_
!!!fot: 'a__a__b__c__b__c__
!!!for: 'a__a__b__a__b__a__
!!!fok: 'Ma_Ma_Sd_Sd_Sd_Sd_
!! PHRAS[AUFTAKTIG]
!!!fkt: Scherz-, Spottlied
!!!bem: 1138
!! KINTZELE
!! PR[36] 2K[4] 2G[6] 3K[11] 3G[7] 4A[2] 4Ü[0] 5A[2] 6K[0] 6G[0]
!! 7K[0] 7G[0] 8A[3] MEHR[0] SI[34] ABS[104] SR[10] SP[24]
!! ST[28] 2k[6] 2g[11] 3k[4] 3g[1] 4d[1] 4ü[0] 5d[4] 6k[0] 6g[0]
!! 7k[0] 7g[0] 8d[5] mehr[0] si[31] dm[+3] sr[16] sp[14]
!! 1F[5] 2F[10] 3F[65] 4F[11] LF[0] 2P[5] 3P[3] 4P[0] TRI[0] DF[6] AB[110]
!! TF[0] U3K[0] U3[0] U4[0] U4Ü[0] U5[7] U6K[0] U6[7] U7K[0] U7[10]
!! N1[28] N2K[0] N2[8] N3K[0] N3[17] N4[5] N4Ü[0] N5[16] N6K[0] N6[1]
!!!n7k: 0] N7[0] O1[3] O2K[0] O2[0] O3K[0] O3[0] HÖ[0
